public/assets/icons/cpp.svg

<svg width="48" height="48" viewBox="0 0 256 256" fill="none"
  xmlns="http://www.w3.org/2000/svg"
  xmlns:xlink="http://www.w3.org/1999/xlink" version="1.1">

  <g transform="translate(0, 0)">
    <svg xmlns="http://www.w3.org/2000/svg" width="256" height="256" fill="none" viewBox="0 0 256 256">
      <rect width="256" height="256" fill="#00599C" rx="60"/>
      <path fill="#fff" d="M110.759 210.517C65.1254 210.517 28 173.392 28 127.759C28 82.1254 65.1254 45 110.759 45C140.204 45 167.667 60.8458 182.427 86.3533L146.611 107.079C139.224 94.3111 125.485 86.3793 110.759 86.3793C87.9416 86.3793 69.3793 104.942 69.3793 127.759C69.3793 150.575 87.9416 169.138 110.759 169.138C125.486 169.138 139.225 161.206 146.613 148.436L182.429 169.161C167.669 194.671 140.206 210.517 110.759 210.517Z"/>
      <path fill="#fff" d="M193.517 123.161H184.321V113.965H175.127V123.161H165.931V132.356H175.127V141.552H184.321V132.356H193.517V123.161Z"/>
      <path fill="#fff" d="M228 123.161H218.804V113.965H209.61V123.161H200.414V132.356H209.61V141.552H218.804V132.356H228V123.161Z"/>
    </svg>
  </g>

</svg>

<svg xmlns="http://www.w3.org/2000/svg" width="48" height="48" fill="none" viewBox="0 0 256 256"><svg xmlns="http://www.w3.org/2000/svg" width="256" height="256" viewBox="0 0 256 256"><rect width="256" height="256" fill="#00599C" rx="60"/><path fill="#fff" d="M110.759 210.517C65.125 210.517 28 173.392 28 127.759 28 82.125 65.125 45 110.759 45c29.445 0 56.908 15.846 71.668 41.353l-35.816 20.726c-7.387-12.768-21.126-20.7-35.852-20.7-22.817 0-41.38 18.563-41.38 41.38 0 22.816 18.563 41.379 41.38 41.379 14.727 0 28.466-7.932 35.854-20.702l35.816 20.725c-14.76 25.51-42.223 41.356-71.67 41.356"/><path fill="#fff" d="M193.517 123.161h-9.196v-9.196h-9.194v9.196h-9.196v9.195h9.196v9.196h9.194v-9.196h9.196zM228 123.161h-9.196v-9.196h-9.194v9.196h-9.196v9.195h9.196v9.196h9.194v-9.196H228z"/></svg></svg>
